symbols/web/help_center/materialsymbolsrounded/help_center_wght700grad200fill1_48px.svg

<svg xmlns="http://www.w3.org/2000/svg" height="48" width="48"><path d="M9.5 43.05q-1.85 0-3.2-1.35t-1.35-3.2v-29q0-1.85 1.35-3.225T9.5 4.9h29q1.85 0 3.225 1.375T43.1 9.5v29q0 1.85-1.375 3.2T38.5 43.05Zm14.15-7.5q.95 0 1.625-.675t.675-1.525q0-.95-.675-1.6-.675-.65-1.625-.65-.85 0-1.525.65-.675.65-.675 1.6 0 .85.675 1.525.675.675 1.525.675Zm1.65-8.9q.1-.65.75-1.525.65-.875 1.45-1.725 1.3-1.35 1.975-2.625t.675-2.925q0-2.6-1.6-4.1-1.6-1.5-4.4-1.5-2.05 0-4.025.95-1.975.95-2.575 2.2-.3.75-.225 1.525.075.775.675.975.75.3 1.45.075.7-.225 1.25-.825.7-.65 1.45-.975.75-.325 1.75-.325 1.15 0 1.875.65.725.65.725 1.75 0 .85-.45 1.65-.45.8-1.5 1.7-1.25 1.3-2 2.55-.75 1.25-.75 2.25 0 .75.45 1.3t1.15.55q.7 0 1.225-.425.525-.425.675-1.175Z"/></svg>

<svg xmlns="http://www.w3.org/2000/svg" height="48" width="48"><path d="M9.5 43.05Q7.65 43.05 6.3 41.7Q4.95 40.35 4.95 38.5V9.5Q4.95 7.65 6.3 6.275Q7.65 4.9 9.5 4.9H38.5Q40.35 4.9 41.725 6.275Q43.1 7.65 43.1 9.5V38.5Q43.1 40.35 41.725 41.7Q40.35 43.05 38.5 43.05ZM23.65 35.55Q24.6 35.55 25.275 34.875Q25.95 34.2 25.95 33.35Q25.95 32.4 25.275 31.75Q24.6 31.1 23.65 31.1Q22.8 31.1 22.125 31.75Q21.45 32.4 21.45 33.35Q21.45 34.2 22.125 34.875Q22.8 35.55 23.65 35.55ZM25.3 26.65Q25.4 26 26.05 25.125Q26.7 24.25 27.5 23.4Q28.8 22.05 29.475 20.775Q30.15 19.5 30.15 17.85Q30.15 15.25 28.55 13.75Q26.95 12.25 24.15 12.25Q22.1 12.25 20.125 13.2Q18.15 14.15 17.55 15.4Q17.25 16.15 17.325 16.925Q17.4 17.7 18 17.9Q18.75 18.2 19.45 17.975Q20.15 17.75 20.7 17.15Q21.4 16.5 22.15 16.175Q22.9 15.85 23.9 15.85Q25.05 15.85 25.775 16.5Q26.5 17.15 26.5 18.25Q26.5 19.1 26.05 19.9Q25.6 20.7 24.55 21.6Q23.3 22.9 22.55 24.15Q21.8 25.4 21.8 26.4Q21.8 27.15 22.25 27.7Q22.7 28.25 23.4 28.25Q24.1 28.25 24.625 27.825Q25.15 27.4 25.3 26.65Z"/></svg>
